X:125
T: Die Schlangenkoechin
N: Q2079P
O: Nord - Amerika, USA, Neuengland
N: Amerikanische Fassung der Ballade. Pausen an den Zeilenenden
N: ergaenzt.
N: Zweite und vierte Zeile = Refrain.
R: Ballade, Mord; Reigen - Tanz, antiphonal
M: 3/4
L: 1/8
K: G
D | D2B2B2 | B2A2
G2 | D2F2A2 | A4z
A | D2B2B2 | B2A2
G2 | D2F2A2 | A4
GB | d2B2dc | B2B2
BA | G2D2G2 | A4
GB | d2B2dc | B2G2
B2 | A2A2A2 | G4z

